X:0377
T:Oak Stick.
T:New Way.
M:6/8
L:1/8
Q:3/8=120
I: :: ::
Z:Jack Campin * www.campin.me.uk * 2009
K:D
ded dcB|c2A A3 |d2f ede|f3  a3 |
dfd cec|B3  A2g|faf ecA|B3  A3:|
d2f fdf|fdf fed|c2e ece|ece edc|
d2f fdf|fdf fed|fga ecA|B3  A3:|
<end>
<start>
